public/icons/icon-phone.svg

<svg width="16" height="16" viewBox="0 0 16 16" fill="none" xmlns="http://www.w3.org/2000/svg">
<path d="M14.6668 7.9987C14.6668 7.12321 14.4944 6.25635 14.1594 5.44743C13.8243 4.63867 13.3333 3.90365 12.7142 3.28467C12.0952 2.66553 11.3602 2.17448 10.5514 1.83952C9.74255 1.50439 8.87565 1.33203 8.00016 1.33203V2.66536C8.70054 2.66536 9.39406 2.80339 10.0411 3.07129C10.6882 3.33936 11.2761 3.73226 11.7714 4.22754C12.2666 4.72266 12.6595 5.31071 12.9275 5.95768C13.1955 6.60482 13.3335 7.29834 13.3335 7.9987H14.6668Z" fill="#E8F5FF"/>
<path d="M1.3335 6.66536L1.3335 3.33203C1.3335 2.96387 1.63198 2.66536 2.00016 2.66536L5.3335 2.66536C5.70168 2.66536 6.00016 2.96387 6.00016 3.33203L6.00016 5.9987C6.00016 6.36686 5.70168 6.66536 5.3335 6.66536L4.00016 6.66536C4.00016 9.61084 6.38798 11.9987 9.3335 11.9987V10.6654C9.3335 10.2972 9.63198 9.9987 10.0002 9.9987H12.6668C13.035 9.9987 13.3335 10.2972 13.3335 10.6654V13.9987C13.3335 14.3669 13.035 14.6654 12.6668 14.6654H9.3335C4.91522 14.6654 1.3335 11.0837 1.3335 6.66536Z" fill="#E8F5FF"/>
<path d="M11.6957 6.46794C11.8967 6.95329 12.0002 7.47347 12.0002 7.9987H10.8002C10.8002 7.63102 10.7277 7.26693 10.587 6.92725C10.4463 6.5874 10.2401 6.27881 9.98006 6.01888C9.72005 5.75879 9.4114 5.55257 9.07168 5.41178C8.73197 5.27116 8.36786 5.19873 8.00016 5.19873V3.9987C8.52545 3.9987 9.04559 4.10221 9.5309 4.30322C10.0162 4.50423 10.4572 4.79883 10.8286 5.17025C11.2 5.54167 11.4947 5.98258 11.6957 6.46794Z" fill="#E8F5FF"/>
</svg>

<svg viewBox="0 0 16 16" fill="none" xmlns="http://www.w3.org/2000/svg"><path d="M14.667 7.999A6.668 6.668 0 0 0 8 1.332v1.333A5.335 5.335 0 0 1 13.334 8h1.333zM1.333 6.665V3.332c0-.368.299-.667.667-.667h3.333c.369 0 .667.299.667.667v2.667a.667.667 0 0 1-.667.666H4A5.333 5.333 0 0 0 9.334 12v-1.334c0-.368.298-.666.666-.666h2.667c.368 0 .667.298.667.666V14a.667.667 0 0 1-.667.666H9.334a8 8 0 0 1-8-8z" fill="#E8F5FF"/><path d="M11.696 6.468A4 4 0 0 1 12 7.998h-1.2a2.8 2.8 0 0 0-2.8-2.8v-1.2a4 4 0 0 1 3.696 2.47z" fill="#E8F5FF"/></svg>
